apps/symbolic/preferences-system-privacy-symbolic.svg.svg

<?xml version="1.0" encoding="UTF-8" standalone="no"?>
<svg
   xmlns:dc="http://purl.org/dc/elements/1.1/"
   xmlns:cc="http://creativecommons.org/ns#"
   xmlns:rdf="http://www.w3.org/1999/02/22-rdf-syntax-ns#"
   xmlns:svg="http://www.w3.org/2000/svg"
   xmlns="http://www.w3.org/2000/svg"
   xmlns:xlink="http://www.w3.org/1999/xlink"
   xmlns:sodipodi="http://sodipodi.sourceforge.net/DTD/sodipodi-0.dtd"
   xmlns:inkscape="http://www.inkscape.org/namespaces/inkscape"
   version="1.1"
   width="24"
   height="24"
   viewBox="0 0 24 24"
   id="svg2"
   inkscape:version="0.92.1 r15371"
   sodipodi:docname="preferences-system-privacy-symbolic.svg.svg">
  <metadata
     id="metadata10">
    <rdf:RDF>
      <cc:Work
         rdf:about="">
        <dc:format>image/svg+xml</dc:format>
        <dc:type
           rdf:resource="http://purl.org/dc/dcmitype/StillImage" />
        <dc:title></dc:title>
      </cc:Work>
    </rdf:RDF>
  </metadata>
  <defs
     id="defs8">
    <linearGradient
       id="linearGradient4422">
      <stop
         id="stop4424"
         offset="0"
         style="stop-color:#197ff1;stop-opacity:1" />
      <stop
         id="stop4426"
         offset="1"
         style="stop-color:#21c6fb;stop-opacity:1" />
    </linearGradient>
    <linearGradient
       id="linearGradient4232">
      <stop
         style="stop-color:#3889e9;stop-opacity:1"
         offset="0"
         id="stop4234-0" />
      <stop
         style="stop-color:#5ea5fb;stop-opacity:1"
         offset="1"
         id="stop4236" />
    </linearGradient>
    <linearGradient
       gradientTransform="matrix(1.6428585,0,0,1.6428585,-648.64559,-870.67877)"
       gradientUnits="userSpaceOnUse"
       y2="517.79797"
       x2="399.57144"
       y1="545.79797"
       x1="399.57144"
       id="linearGradient3426"
       xlink:href="#linearGradient4232"
       inkscape:collect="always" />
  </defs>
  <sodipodi:namedview
     pagecolor="#ffffff"
     bordercolor="#666666"
     borderopacity="1"
     objecttolerance="10"
     gridtolerance="10"
     guidetolerance="10"
     inkscape:pageopacity="0"
     inkscape:pageshadow="2"
     inkscape:window-width="640"
     inkscape:window-height="480"
     id="namedview6"
     showgrid="false"
     inkscape:zoom="25.291667"
     inkscape:cx="4.9404866"
     inkscape:cy="12.263924"
     inkscape:current-layer="svg2" />
  <path
     d="m 11.860909,9.1363632 2.593636,2.5854548 c 0,-0.04091 0,-0.09 0,-0.130909 A 2.4545455,2.4545455 0 0 0 12,9.1363632 c -0.04909,0 -0.09,0 -0.139091,0 M 8.3427273,9.7909092 9.6109091,11.059091 C 9.57,11.230909 9.5454545,11.402727 9.5454545,11.590909 A 2.4545455,2.4545455 0 0 0 12,14.045454 c 0.18,0 0.36,-0.02454 0.531818,-0.06545 L 13.8,15.248182 c -0.548182,0.27 -1.153636,0.433636 -1.8,0.433636 A 4.0909091,4.0909091 0 0 1 7.9090909,11.590909 c 0,-0.646364 0.1636364,-1.251818 0.4336364,-1.7999998 M 3.8181818,5.2663636 5.6836364,7.1318181 6.0518182,7.4999999 C 4.7018182,8.5636362 3.6381818,9.9545452 3,11.590909 c 1.4154545,3.591818 4.9090909,6.136363 9,6.136363 1.268182,0 2.479091,-0.245454 3.583636,-0.687272 l 0.351819,0.343636 2.38909,2.389091 1.039091,-1.039091 L 4.8572727,4.2272727 M 12,7.4999999 a 4.0909091,4.0909091 0 0 1 4.090909,4.0909091 c 0,0.523636 -0.106364,1.030909 -0.294545,1.489091 l 2.397272,2.397272 C 19.420909,14.454545 20.402727,13.112727 21,11.590909 19.584545,7.9990912 16.090909,5.4545454 12,5.4545454 c -1.145454,0 -2.2418182,0.2045454 -3.2727273,0.5727273 L 10.502727,7.7863632 C 10.969091,7.6063636 11.468182,7.4999999 12,7.4999999 Z"
     id="path4"
     style="fill:#bebebe;fill-opacity:1;stroke-width:0.81818181"
     inkscape:connector-curvature="0" />
  <circle
     r="0"
     cy="2.9899225"
     cx="9.4365206"
     id="ellipse4233"
     style="opacity:1;fill:url(#linearGradient3426);fill-opacity:1;stroke:none;stroke-width:1.29999995;stroke-miterlimit:4;stroke-dasharray:none;stroke-dashoffset:0;stroke-opacity:1" />
</svg>

<svg xmlns="http://www.w3.org/2000/svg" viewBox="0 0 24 24">
  <path fill="#bebebe" d="M11.86 9.136l2.595 2.586v-.131A2.455 2.455 0 0 0 12 9.136h-.14m-3.517.655l1.268 1.268a2.253 2.253 0 0 0-.066.532A2.455 2.455 0 0 0 12 14.045c.18 0 .36-.024.532-.065l1.268 1.268a4.055 4.055 0 0 1-1.8.434 4.09 4.09 0 0 1-4.09-4.091c0-.646.163-1.252.433-1.8M3.818 5.266l1.866 1.866.368.368A9.681 9.681 0 0 0 3 11.59c1.415 3.593 4.91 6.137 9 6.137 1.268 0 2.48-.245 3.584-.687l.351.344 2.39 2.389 1.039-1.04L4.857 4.228M12 7.5a4.09 4.09 0 0 1 4.09 4.09c0 .525-.105 1.032-.294 1.49l2.398 2.397A9.69 9.69 0 0 0 21 11.591c-1.415-3.592-4.91-6.136-9-6.136a9.692 9.692 0 0 0-3.273.572l1.776 1.76c.466-.18.965-.287 1.497-.287z"/>
</svg>
